X:65
T:Grania's Welcome Home part 2 (j)
B:NFID.086-2
065gran_wh2
S:JD
Z:Robinson/Black
L:1/8
M:6/8
R:jig
Q:320
K:A
eAA cBA|eAA fga|eAA d2e|dB=G Bcd|
eAA cBA|ed=c B2A|=GBd =gfe|dB=G Bcd:|
cBA aga|ecA Bcd|cBA =gfg|dB=G Bcd|
cBA aAA|=gAA f2e|def =gfe|dB=G Bcd:|

%%%

